img/svg/placeholder-ammo.svg

<svg xmlns="http://www.w3.org/2000/svg" viewBox="0 0 512 512" style="height: 512px; width: 512px;"><g class="" transform="translate(0,0)" style=""><path d="M146.8 41c-.2 10.26-.6 20.25-1.3 30h175.3c.3-9.83.4-19.82.2-30H146.8zM144 89C131.1 214.5 76.78 297.9 21.96 367.2L137.3 482.6C239.3 357.1 310.3 244.5 320 89h-29.2c-2.2 49-22 109.8-48.6 168.7-26.9 59.5-60.9 117-92.2 157.6l-12.8-12.8c29.7-39.1 62.7-94.9 88.6-152.2 25.9-57.4 44.7-116.6 47-161.3h-30c-2.2 49-22 109.8-48.6 168.7-21.2 46.9-46.8 92.6-72.1 129.7l-12.9-13c23.9-35.6 48.4-79.4 68.6-124.1 25.9-57.4 44.7-116.6 47-161.3h-30c-2.2 49-22 109.8-48.6 168.7-15.9 35.3-34.3 69.8-53.2 100.5l-13.1-13.1c17.6-29.2 35-61.7 49.9-94.8 25.9-57.4 44.7-116.6 47-161.3H144zm192 149c-1 2.4-2.1 5.2-3.2 8.7-3.5 11.3-7 27.1-10 43-4 21.3-6.9 41.8-8.5 53.3h43.4c-1.6-11.5-4.5-32-8.5-53.3-3-15.9-6.5-31.7-10-43-1.1-3.5-2.2-6.3-3.2-8.7zm64 0c-1 2.4-2.1 5.2-3.2 8.7-3.5 11.3-7 27.1-10 43-4 21.3-6.9 41.8-8.5 53.3h43.4c-1.6-11.5-4.5-32-8.5-53.3-3-15.9-6.5-31.7-10-43-1.1-3.5-2.2-6.3-3.2-8.7zm64 0c-1 2.4-2.1 5.2-3.2 8.7-3.5 11.3-7 27.1-10 43-4 21.3-6.9 41.8-8.5 53.3h43.4c-1.6-11.5-4.5-32-8.5-53.3-3-15.9-6.5-31.7-10-43-1.1-3.5-2.2-6.3-3.2-8.7zM313 361v126h46V361h-46zm64 0v126h46V361h-46zm64 0v126h46V361h-46z" fill="#fff" fill-opacity="1"></path></g></svg>

<svg width="512" height="512" viewBox="0 0 512 512" fill="none" xmlns="http://www.w3.org/2000/svg">
<path d="M146.8 41C146.6 51.26 146.2 61.25 145.5 71H320.8C321.1 61.17 321.2 51.18 321 41H146.8ZM144 89C131.1 214.5 76.78 297.9 21.96 367.2L137.3 482.6C239.3 357.1 310.3 244.5 320 89H290.8C288.6 138 268.8 198.8 242.2 257.7C215.3 317.2 181.3 374.7 150 415.3L137.2 402.5C166.9 363.4 199.9 307.6 225.8 250.3C251.7 192.9 270.5 133.7 272.8 89H242.8C240.6 138 220.8 198.8 194.2 257.7C173 304.6 147.4 350.3 122.1 387.4L109.2 374.4C133.1 338.8 157.6 295 177.8 250.3C203.7 192.9 222.5 133.7 224.8 89H194.8C192.6 138 172.8 198.8 146.2 257.7C130.3 293 111.9 327.5 93 358.2L79.9 345.1C97.5 315.9 114.9 283.4 129.8 250.3C155.7 192.9 174.5 133.7 176.8 89H144ZM336 238C335 240.4 333.9 243.2 332.8 246.7C329.3 258 325.8 273.8 322.8 289.7C318.8 311 315.9 331.5 314.3 343H357.7C356.1 331.5 353.2 311 349.2 289.7C346.2 273.8 342.7 258 339.2 246.7C338.1 243.2 337 240.4 336 238ZM400 238C399 240.4 397.9 243.2 396.8 246.7C393.3 258 389.8 273.8 386.8 289.7C382.8 311 379.9 331.5 378.3 343H421.7C420.1 331.5 417.2 311 413.2 289.7C410.2 273.8 406.7 258 403.2 246.7C402.1 243.2 401 240.4 400 238ZM464 238C463 240.4 461.9 243.2 460.8 246.7C457.3 258 453.8 273.8 450.8 289.7C446.8 311 443.9 331.5 442.3 343H485.7C484.1 331.5 481.2 311 477.2 289.7C474.2 273.8 470.7 258 467.2 246.7C466.1 243.2 465 240.4 464 238ZM313 361V487H359V361H313ZM377 361V487H423V361H377ZM441 361V487H487V361H441Z" fill="#444856"/>
</svg>
